src/assets/outline/Like.svg

<svg width="24" height="24" viewBox="0 0 24 24"  xmlns="http://www.w3.org/2000/svg">
<path d="M12 22.7498C11.3 22.7498 10.59 22.4798 10.06 21.9498L8.35001 20.2598C7.93001 19.8398 7.35001 19.6097 6.76001 19.6097H6C3.93 19.6097 2.25 17.9398 2.25 15.8898V4.97974C2.25 2.92974 3.93 1.25977 6 1.25977H18C20.07 1.25977 21.75 2.92974 21.75 4.97974V15.8898C21.75 17.9398 20.07 19.6097 18 19.6097H17.24C16.65 19.6097 16.07 19.8498 15.65 20.2598L13.94 21.9498C13.41 22.4798 12.7 22.7498 12 22.7498ZM6 2.74976C4.76 2.74976 3.75 3.74973 3.75 4.96973V15.8798C3.75 17.1098 4.76 18.0997 6 18.0997H6.76001C7.75001 18.0997 8.71 18.4998 9.41 19.1898L11.12 20.8798C11.61 21.3598 12.4 21.3598 12.89 20.8798L14.6 19.1898C15.3 18.4998 16.26 18.0997 17.25 18.0997H18C19.24 18.0997 20.25 17.0998 20.25 15.8798V4.96973C20.25 3.73973 19.24 2.74976 18 2.74976H6Z" />
<path d="M11.9998 15.75C11.8198 15.75 11.6398 15.72 11.4798 15.67C10.1598 15.22 6.75977 13.23 6.75977 9.51001C6.75977 7.71001 8.21977 6.25 10.0098 6.25C10.7398 6.25 11.4398 6.5 12.0098 6.94C12.5798 6.5 13.2798 6.25 14.0098 6.25C15.7998 6.25 17.2598 7.71001 17.2598 9.51001C17.2598 13.23 13.8498 15.22 12.5398 15.67C12.3598 15.72 12.1798 15.75 11.9998 15.75ZM9.99976 7.75C9.03976 7.75 8.24976 8.54001 8.24976 9.51001C8.24976 12.34 10.9997 13.92 11.9597 14.25C11.9697 14.25 12.0098 14.25 12.0398 14.25C13.0098 13.91 15.7397 12.33 15.7397 9.52002C15.7397 8.55002 14.9597 7.76001 13.9897 7.76001C13.4397 7.76001 12.9298 8.02002 12.5898 8.46002C12.3098 8.84002 11.6698 8.84002 11.3898 8.46002C11.0698 8.01002 10.5598 7.75 9.99976 7.75Z" />
</svg>

<?xml version="1.0" encoding="UTF-8"?>
<svg width="24" height="24" viewBox="0 0 24 24" xmlns="http://www.w3.org/2000/svg">
 <path d="m12 22.75c-0.7 0-1.41-0.27-1.94-0.8l-1.71-1.69c-0.42-0.42-1-0.6501-1.59-0.6501h-0.76001c-2.07 0-3.75-1.6699-3.75-3.7199v-10.91c0-2.05 1.68-3.72 3.75-3.72h12c2.07 0 3.75 1.67 3.75 3.72v10.91c0 2.05-1.68 3.7199-3.75 3.7199h-0.76c-0.59 0-1.17 0.2401-1.59 0.6501l-1.71 1.69c-0.53 0.53-1.24 0.8-1.94 0.8zm-6-20c-1.24 0-2.25 0.99997-2.25 2.22v10.91c0 1.23 1.01 2.2199 2.25 2.2199h0.76001c0.99 0 1.95 0.4001 2.65 1.0901l1.71 1.69c0.49 0.48 1.28 0.48 1.77 0l1.71-1.69c0.7-0.69 1.66-1.0901 2.65-1.0901h0.75c1.24 0 2.25-0.9999 2.25-2.2199v-10.91c0-1.23-1.01-2.22-2.25-2.22h-12z"/>
 <path d="m12 15.75c-0.18 0-0.36-0.03-0.52-0.08-1.32-0.45-4.72-2.44-4.72-6.16 0-1.8 1.46-3.26 3.25-3.26 0.73 0 1.43 0.25 2 0.69 0.57-0.44 1.27-0.69 2-0.69 1.79 0 3.25 1.46 3.25 3.26 0 3.72-3.41 5.71-4.72 6.16-0.18 0.05-0.36 0.08-0.54 0.08zm-2-8c-0.96 0-1.75 0.79001-1.75 1.76 0 2.83 2.7499 4.41 3.7099 4.74h0.0801c0.97-0.34 3.6999-1.92 3.6999-4.73 0-0.97-0.78-1.76-1.75-1.76-0.55 0-1.0599 0.26001-1.3999 0.70001-0.28 0.38-0.92 0.38-1.2 0-0.32-0.45-0.83-0.71002-1.39-0.71002z"/>
</svg>
